X: 33
T: No_3_Song_When_Setting_Up_Iatiku's_Altar.krn
N: Derived from No_3_Song_When_Setting_Up_Iatiku's_Altar.krn
%%abc-version 2.0
%%abcx-abcm2ps-target-version 5.9.1 (29 Sep 2008)
%%abc-creator hum2abc beta
%%abcx-conversion-date 2019/03/15 08:25:35
%%humdrum-veritas 647172790
%%humdrum-veritas-data 1398638780
%%linebreak <none>
%%barnumbers 0
L: 1/8
M: 3/4
K: G clef=bass
[K:clef=bass][M:3/4]D/D/D3//D// (DG,) G,G, [I:setbarnb 2]| 
B,/A,/A,3//A,// A,G, G,G, | 
B,/A,/A,3//A,// A,G, G,G, | 
[M:2/4]A,A, G,G, | 
A,A, G,G, | 
G,G, G, z :|]  
B,2A,2 | 
A,G, G,G, | 
B,3/A,/A,2 | 
A,G, G,G, | 
B,A, A,3/A,/ | 
A,G, G,G, | 
[M:3/4]A,G,G,2G,A, | 
G,G, G,G,z2 |]  



